!!!!SEGMENT: pl-wtm--r-258-m--007_moniuszko-stanislaw--msza-benedictus.krn
!!!cenid: 18xx:2541
!!!COM: Moniuszko, Stanisław
!!!COM-rismid: pe30008351
!!!CDT: 1819/05/05-1872/06/04
!!!CNT: Polish
!!!OPR: Msza
!!!OTL: Benedictus
!!!OMV: 007
!!!PDT: 1870
!!!AGN: Sacred; Mass
!!!SMS-siglum: PL-Wtm
!!!SMS-shelfmark: R 258/M
!!!SMS-shelfwork: 001-007 M
!!!SMS-variant:
!!!SMS-altvar:
!!!NIFC-rismid: 1001095348
!!!URL-scan: http://repozytorium.nifc.pl/skany/pl-wtm-nut--r258m
!!!ONB-nifc: UWAGA: części Mszy: 1. Kyrie, 2. Et in terra, 3. Graduale, 4. Credo, 5. Offertorium, 6. Sanctus, 7. Benedictus, 8. Agnus
**kern	**kern	**dynam	**kern	**text	**dynam	**kern	**text	**dynam	**kern	**text	**dynam	**kern	**text	**dynam
*part6	*part5	*part5	*part4	*part4	*part4	*part3	*part3	*part3	*part2	*part2	*part2	*part1	*part1	*part1
*staff6	*staff5	*	*staff4	*staff4	*	*staff3	*staff3	*	*staff2	*staff2	*	*staff1	*staff1	*
*Iorgan	*Iorgan	*	*Iempty	*	*	*Itenor	*	*	*Ialto	*	*	*Isoprn	*	*
*I"Organy	*I"Organy	*	*I"[Bas]	*	*	*I"[Tenor]	*	*	*I"[Alt]	*	*	*I"[Sopran]	*	*
*clefF4	*clefG2	*	*clefF4	*	*	*clefG2	*	*	*clefG2	*	*	*clefG2	*	*
*k[b-e-a-d-]	*k[b-e-a-d-]	*	*k[b-e-a-d-]	*	*	*k[b-e-a-d-]	*	*	*k[b-e-a-d-]	*	*	*k[b-e-a-d-]	*	*
*A-:	*A-:	*	*A-:	*	*	*A-:	*	*	*A-:	*	*	*A-:	*	*
*M3/4	*M3/4	*	*M3/4	*	*	*M3/4	*	*	*M3/4	*	*	*M3/4	*	*
=1	=1	=1	=1	=1	=1	=1	=1	=1	=1	=1	=1	=1	=1	=1
*all\right	*all\right	*	*all\right	*	*	*all\right	*	*	*all\right	*	*	*all\right	*	*
!	!	!	!	!	!	!	!	!	!	!	!	!LO:TX:a:i:t=Solo	!	!
!	!	!	!	!	!	!	!	!	!	!	!	!LO:TX:a:B:t=Andante:color=blue	!	!
2.r	2.r	.	2.r	.	.	2.r	.	.	2.r	.	.	8cc\	Be-	.
.	.	.	.	.	.	.	.	.	.	.	.	8b-\	-ne-	.
.	.	.	.	.	.	.	.	.	.	.	.	4a-/	-dic-	.
.	.	.	.	.	.	.	.	.	.	.	.	8g/	-tus	.
.	.	.	.	.	.	.	.	.	.	.	.	8a-/	qui	.
=2	=2	=2	=2	=2	=2	=2	=2	=2	=2	=2	=2	=2	=2	=2
2.r	2.r	.	2.r	.	.	2.r	.	.	2.r	.	.	2b-/	ve-	.
.	.	.	.	.	.	.	.	.	.	.	.	4e-/	-nit	.
=3	=3	=3	=3	=3	=3	=3	=3	=3	=3	=3	=3	=3	=3	=3
2.r	2.r	.	2.r	.	.	2.r	.	.	2.r	.	.	8ee-\	be-	.
.	.	.	.	.	.	.	.	.	.	.	.	8dd-\	-ne-	.
.	.	.	.	.	.	.	.	.	.	.	.	4cc\	-dic-	.
.	.	.	.	.	.	.	.	.	.	.	.	8b-\	-tus	.
.	.	.	.	.	.	.	.	.	.	.	.	8cc\	qui	.
=4	=4	=4	=4	=4	=4	=4	=4	=4	=4	=4	=4	=4	=4	=4
*	*	*	*	*	*	*	*	*	*	*	*	*2\right	*	*
2.r	2.r	.	2.r	.	.	2.r	.	.	2.r	.	.	2dd-\	ve-	.
.	.	.	.	.	.	.	.	.	.	.	.	8f/	-nit	.
.	.	.	.	.	.	.	.	.	.	.	.	16r	.	.
.	.	.	.	.	.	.	.	.	.	.	.	16f/	in	.
=5	=5	=5	=5	=5	=5	=5	=5	=5	=5	=5	=5	=5	=5	=5
2.r	2.r	.	2.r	.	.	2.r	.	.	2.r	.	.	4a-/	no-	.
.	.	.	.	.	.	.	.	.	.	.	.	8g/	-mi-	.
.	.	.	.	.	.	.	.	.	.	.	.	8a-/	-ne	.
.	.	.	.	.	.	.	.	.	.	.	.	8.cc\	Do-	.
.	.	.	.	.	.	.	.	.	.	.	.	16b-\	-mi-	.
=6	=6	=6	=6	=6	=6	=6	=6	=6	=6	=6	=6	=6	=6	=6
2.r	2.r	.	2.r	.	.	2.r	.	.	2.r	.	.	2.b-\	-ni	.
!	!	!	!LO:TX:a:i:t=Solo:note=podkreślone na niebiesko	!	!	!LO:TX:a:i:t=Solo:note=podkreślone na niebiesko	!	!	!LO:TX:a:i:t=Solo:note=podkreślone na niebiesko	!	!	!	!	!
.	.	pp	.	.	.	.	.	.	.	.	.	.	.	.
=7	=7	=7	=7	=7	=7	=7	=7	=7	=7	=7	=7	=7	=7	=7
*^	*^	*	*	*	*	*	*	*	*	*	*	*	*	*
*	*	*	*^	*	*	*	*	*	*	*	*	*	*	*	*	*
*	*	*	*2\right	*2\right	*	*	*	*	*	*	*	*	*	*	*	*	*
2.E- 2.EE-/	2.rEE	2b-/	2.g\	2d-\	.	8E-\	be-	.	8dd-\	be-	.	8g/	be-	.	8b-\	be-	.
*	*	*	*	*	*	*	*ij	*	*	*ij	*	*	*ij	*	*	*	*
.	.	.	.	.	.	8E-\	-ne-	.	8dd-\	-ne-	.	8g/	-ne-	.	8b-\	-ne-	.
.	.	.	.	.	.	4E-\	-dic-	.	4dd-\	-dic-	.	4g/	-dic-	.	4b-\	-dic-	.
.	.	8cc/L	.	8e-\L	.	8E-\	-tus	.	8ee-\	-tus	.	8g/	-tus	.	8cc\	-tus	.
.	.	8b-/J	.	8d-\J	.	8E-\	qui	.	8dd-\	qui	.	8g/	qui	.	8b-\	qui	.
*	*	*	*	*	*	*	*Xij	*	*	*Xij	*	*	*Xij	*	*	*	*
*	*	*	*v	*v	*	*	*	*	*	*	*	*	*	*	*	*	*
!!LO:PB:g=original
=8	=8	=8	=8	=8	=8	=8	=8	=8	=8	=8	=8	=8	=8	=8	=8	=8
*	*	*	*	*	*2\right	*	*	*2\right	*	*	*	*	*	*	*	*
!	!	!	!	!	!	!	!	!	!	!	!LO:TX:t=a=:color=red	!	!	!	!	!
2.E- 2.EE-/	2.rEE	2.a-/	(>4c\	.	2E-\	.	.	2cc\	.	.	2e-/	.	.	2a-/	ve-	.
.	.	.	4e-\	.	.	.	.	.	.	.	.	.	.	.	.	.
.	.	.	4A-</)	.	4E-\	.	.	4ee-\	.	.	4e-/	.	.	4e-/	-nit	.
=9	=9	=9	=9	=9	=9	=9	=9	=9	=9	=9	=9	=9	=9	=9	=9	=9
!	!	!	!	!	!	!	!LO:DY:a:rj:t=piu f	!	!	!LO:DY:a:rj:t=piu f	!	!	!LO:DY:a:rj:t=piu f	!	!	!LO:DY:a:rj:t=piu f
2B-/	2E-\	2dd-/	2.g\	.	8E-\	.	f	8b-\	.	f	8g/	.	f	8dd-\	be-	f
.	.	.	.	.	8E-\	.	.	8b-\	.	.	8g/	.	.	8dd-\	-ne-	.
.	.	.	.	.	4E-\	.	.	4b-\	.	.	4g/	.	.	4dd-\	-dic-	.
8c/L	4rEE	8ee-/L	.	.	8E-\	.	.	8cc\	.	.	8g/	.	.	8ee-\	-tus	.
8B-/J	.	8dd-/J	.	.	8E-\	.	.	8b-\	.	.	8g/	.	.	8dd-\	qui	.
=10	=10	=10	=10	=10	=10	=10	=10	=10	=10	=10	=10	=10	=10	=10	=10	=10
2A- 2AA-/	2.rEE	2cc/	2a-\	.	2AA-/	.	.	2a-/	.	.	2a-/	.	.	2cc\	ve-	.
8.r	.	8.r	4rcyy	.	8A-\	.	.	8a-/	.	.	8a-/	.	.	8a-/	-nit	.
.	.	.	.	.	16r	.	.	16r	.	.	16r	.	.	16r	.	.
!	!	!	!	!	!	!	!LO:DY:a:rj	!	!	!	!	!	!	!	!	!LO:DY:a
16A-/	.	16a-/	.	.	16A-\	.	f	16a-/	.	.	16a-/	.	.	16a-/	in	f
*	*	*v	*v	*	*	*	*	*	*	*	*	*	*	*	*	*
=11	=11	=11	=11	=11	=11	=11	=11	=11	=11	=11	=11	=11	=11	=11	=11
!	!	!	!	!	!	!LO:DY:rj	!	!	!	!	!	!LO:DY:rj	!	!	!
8.d-L 8.B- 8.E-;/	2.rEE	8.ffL 8.a- 8.f;/	.	8.d-;\	.	f	8.ff;\	.	f	8.a-;/	.	f	8.ff;\	no-	.
16cJk 16A- 16C/	.	16ee-Jk 16a- 16f/	.	16c\	.	.	16ee-\	.	.	16a-/	.	.	16ee-\	-mi-	.
4c 4A- 4C/	.	4ee- 4a- 4e-/	.	4c\	.	.	4ee-\	.	.	4a-/	.	.	4ee-\	-ne	.
8r	.	8r	.	8r	.	.	8r	.	.	8r	.	.	8r	.	.
8A-/	.	8cc 8a- 8e-/	.	8A-\	.	.	8ee-\	.	.	8a-/	.	.	8cc\	in	.
=12	=12	=12	=12	=12	=12	=12	=12	=12	=12	=12	=12	=12	=12	=12	=12
8.B-L 8.G;/	2.rEE	8.ee-L 8.b- 8.e-;/	.	8.G;\	.	.	8.ee-;\	.	.	8.b-;/	.	.	8.ee-;\	no-	.
16B-Jk 16G/	.	16dd-Jk 16b- 16e-/	.	16G\	.	.	16ee-\	.	.	16b-/	.	.	16dd-\	-mi-	.
4c 4A-/	.	4cc 4a- 4e-/	.	4A-\	.	.	4ee-\	.	.	4a-/	.	.	4cc\	-ne	.
8r	.	8r	.	8r@	.	.	8r	.	.	8r	.	.	8r	.	.
8c 8C/	.	8cc/	.	8C/	.	.	8cc\	.	.	8c/	.	.	8cc\	in	.
=13	=13	=13	=13	=13	=13	=13	=13	=13	=13	=13	=13	=13	=13	=13	=13
!	!	!	!	!	!	!LO:DY:a	!	!	!LO:DY:a	!	!	!LO:DY:a	!	!	!LO:DY:a
4E-/	2.rEE	4ee- 4e-/	.	4E-\	.	>	4ee-\	.	>	4e-/	.	>	4ee-\	no-	>
8A-/L	.	8a-/L	.	8A-\	.	.	8a-/	.	.	8a-/	.	.	8a-/	-mi-	.
8B-/	.	8b-/	.	8B-\	.	.	8b-/	.	.	8b-\	.	.	8b-/	-ne	.
8.c;/	.	8.cc;/	.	8.c;\	.	]	8.cc;/	.	]	8.cc;\	.	]	8.cc;\	Do-	]
16A-/Jk	.	16a-/Jk	.	16A-\	.	.	16a-/	.	.	16a-/	.	.	16a-/	-mi-	.
=14	=14	=14	=14	=14	=14	=14	=14	=14	=14	=14	=14	=14	=14	=14	=14
2E-/	2.rEE	2e-/	.	4E-\	.	.	4e-/	.	.	4e-/	.	.	4e-/	-ni	.
.	.	.	.	4r	.	.	4r	.	.	4r	.	.	4r	.	.
!	!	!	!	!	!	!	!	!	!LO:DY:a:rj	!	!	!LO:DY:a:rj	!	!	!LO:DY:a:rj
8r	.	8r	.	8r	.	.	4e-/	.	p	4e-/	.	p	4e-/	in	p
!	!	!	!	!LO:N:vis=4	!	!LO:DY:a:rj	!	!	!	!	!	!	!	!	!
8E-/	.	8e-/	.	8E-\	.	p	.	.	.	.	.	.	.	.	.
=15	=15	=15	=15	=15	=15	=15	=15	=15	=15	=15	=15	=15	=15	=15	=15
8.E-L 8.GG;/	2.rEE	8.e-L 8.B-;/	.	8.GG;/	.	.	8.b-;/	.	.	8.e-;/	.	.	8.dd-;\	no-	.
16E-Jk 16AA-/	.	16e-Jk 16c/	.	16AA-/	.	.	16a-/	.	.	16e-/	.	.	16cc\	-mi-	.
4.E- 4.AA-/	.	4.e- 4.c/	.	4.AA-/	.	.	4.a-/	.	.	4.e-/	.	.	4.cc\	-ne	.
!	!	!	!	!	!	!	!	!	!	!LO:TX:t==B:color=red	!	!	!	!	!
8E- 8BB-/	.	8g 8d-/	.	8BB-/	.	.	8e-/	.	.	8e-/	.	.	8g/	in	.
!!LO:LB:g=original
=16	=16	=16	=16	=16	=16	=16	=16	=16	=16	=16	=16	=16	=16	=16	=16
8.GL 8.D-;/	2.rEE	8.b-L 8.e- 8.B-;/	.	8.D-;/	.	.	8.g;/	.	.	8.e-;/	.	.	8.b-;/	no-	.
16A-Jk 16C/	.	16a-Jk 16e-/	.	16C/	.	.	16a-/	.	.	16e-/	.	.	16a-/	-mi-	.
!	!	!	!	!LO:TX:t=P:problem:stem.color=blue	!	!	!LO:TX:t=P:problem:stem.color=blue	!	!	!LO:TX:t=P:problem:stem.color=blue	!	!	!LO:TX:t=P:problem:stem.color=blue	!	!
[4A- 4C/	.	4a- 4e-/	.	8C/	.	.	8a-/	.	.	8e-/	.	.	8a-/	-ne	.
.	.	.	.	8r@	.	.	8r@	.	.	8r@	.	.	8r@	.	.
4A-] 4D-/	.	4f 4d-/	.	4D-/	in	.	4a-/	in	.	4d-/	in	.	4f/	in	.
=17	=17	=17	=17	=17	=17	=17	=17	=17	=17	=17	=17	=17	=17	=17	=17
*	*	*^	*	*	*	*	*	*	*	*	*	*	*	*	*
!	!LO:TX:t=X=:color=red	!	!	!	!	!	!	!	!	!	!	!	!	!	!	!
2A- [<2E-/	2.rEE	4a-/	2c\	.	2.E-\	no-	.	2a-/	no-	.	2c/	no-	.	4a-/	no-	.
.	.	8g/L	.	.	.	.	.	.	.	.	.	.	.	8g/	-mi-	.
!	!	!	!	!	!	!	!	!	!	!	!	!	!	!LO:TX:a:t=cres-cen-do.:problem:dynamics with extention lines	!	!LO:HP:t=cres-cen-do.
.	.	8a-/	.	.	.	.	.	.	.	.	.	.	.	8a-/	-ne	<
!	!	!	!	!	!LO:TX:a:t=cres-cen-do.:problem:dynamics with extention lines	!	!LO:HP:t=cres-cen-do.	!LO:TX:a:t=cres-cen-do:problem:dynamics with extention lines	!	!LO:HP:t=cres-cen-do	!LO:TX:a:t=cres-cen-do.:problem:dynamics with extention lines	!	!LO:HP:t=cres-cen-do.	!	!	!
4G 4E-/]	.	8.b-/	8.d-\L	.	.	.	<	8.g/	-mi-	<	8.d-/	-mi-	<	8.b-/	Do-	.
.	.	16e-/Jk	16e-\Jk	.	.	.	.	16b-/	-ne	.	16e-/@	-ne	.	16e-/	-mi-	.
=18	=18	=18	=18	=18	=18	=18	=18	=18	=18	=18	=18	=18	=18	=18	=18	=18
*2\right	*	*	*	*	*	*	*	*	*	*	*	*	*	*	*	*
2A- 2AA-\	2.rEE	2.cc/	(>4e- 4c\	.	2AA-/	-mi-	.	(4cc\	Do-	.	(4e-/	Do-	.	2cc\	-ni	.
.	.	.	4f 4dn\	.	.	.	.	4ddn\	.	.	4f/	.	.	.	.	.
4A-\	.	.	4f#X 4d#X\)	.	4A-\	-ne	.	4dd#X\	.	.	4f#X/	.	.	4cc\	in	.
=19	=19	=19	=19	=19	=19	=19	=19	=19	=19	=19	=19	=19	=19	=19	=19	=19
2G/	2.rEE	4cc/	2g 2en\	.	2G\	Do-	.	2een\)	.	.	2g/)	.	.	4cc\	no-	.
.	.	8bn/L	.	.	.	.	.	.	.	.	.	.	.	8bn\	-mi-	.
.	.	8cc/	.	.	.	.	.	.	.	.	.	.	.	8cc\	-ne	.
4Bn 4G/	.	8.ddn/	4f\	.	4G\	-mi-	[	4bn\	-mi-	.	4f/	-mi-	[	8.ddn\	Do-	.
.	.	16g/Jk	.	.	.	.	.	.	.	.	.	.	.	16g/	-mi-	[
=20	=20	=20	=20	=20	=20	=20	=20	=20	=20	=20	=20	=20	=20	=20	=20	=20
[<4c/	2rEE	[4een/	4en\	.	2c\	-ni	.	2cc\	-ni	[	4en/	-ni	.	2een\	-ni.	.
8c/]	.	8ee/]	8g\	.	.	.	.	.	.	.	4g/	.	.	.	.	.
!	!	!	!	!	!	!	!LO:DY:b	!LO:TX:a:i:t=tutti	!	!LO:DY:b	!LO:TX:a:i:t=tutti	!	!LO:DY:b	!LO:TX:a:i:t=tutti	!	!LO:DY:b
8r	.	8r	8rcyy	f	.	.	ff	.	.	ff	.	.	ff	.	.	ff
8.dnL 8.Bn 8.G#X 8.En/	4BBn^\	8.eeL 8.bn 8.g#X 8.e/	4rcyy	.	8.Bn\	Be-	.	8.ddn\	Be-	.	8.g#X/	Be-	.	8.een\	Be-	.
*	*	*	*	*	*	*ij	*	*	*ij	*	*	*ij	*	*	*	*
16dJk 16B 16G# 16E/	.	16eeJk 16b 16g# 16e/	.	.	16B\	-ne-	.	16dd\	-ne-	.	16g#/	-ne-	.	16ee\	-ne-	.
*	*	*v	*v	*	*	*	*	*	*	*	*	*	*	*	*	*
=21	=21	=21	=21	=21	=21	=21	=21	=21	=21	=21	=21	=21	=21	=21	=21
2dn 2Bn 2G#X 2En/	2BBn^\	2een 2bn 2g#X 2en/	.	2Bn\	-dic-	.	2ddn\	-dic-	.	2g#X/	-dic-	.	2een\	-dic-	.
8.dL 8.B 8.G# 8.E/	4BB^\	8.eeL 8.b 8.g# 8.e/	.	8.B\	-tus	.	8.dd\	-tus	.	8.g#/	-tus	.	8.ee\	-tus	.
16dJk 16B 16G# 16E/	.	16eeJk 16b 16g# 16e/	.	16B\	qui	.	16dd\	qui	.	16g#/	qui	.	16ee\	qui	.
=22	=22	=22	=22	=22	=22	=22	=22	=22	=22	=22	=22	=22	=22	=22	=22
*rep	*	*rep	*	*	*	*	*	*	*	*	*	*	*	*	*
2dn 2Bn 2G#X 2En/	2BBn^<\	2een 2bn 2g#X 2en/	.	2Bn\	ve-	.	2ddn\	ve-	.	2g#X/	ve-	.	2een\	ve-	.
8.dL 8.B 8.G# 8.E/	4BB^<\	8.eeL 8.b 8.g# 8.e/	.	8.B\	-nit	.	8.dd\	-nit	.	8.g#/	-nit	.	8.ee\	-nit	.
16dJk 16B 16G# 16E/	.	16eeJk 16b 16g# 16e/	.	16B\	in	.	16dd\	in	.	16g#/	in	.	16ee\	in	.
*Xrep	*	*Xrep	*	*	*Xij	*	*	*Xij	*	*	*Xij	*	*	*	*
!!LO:PB:g=original
=23	=23	=23	=23	=23	=23	=23	=23	=23	=23	=23	=23	=23	=23	=23	=23
*	*2\left	*	*	*	*	*	*	*	*	*	*	*	*	*	*
2dn 2Bn 2G#X 2En/	2BBn\	2een 2bn 2g#X 2en/	.	4Bn\	.	.	4ddn\	.	.	4g#X/	.	.	4een\	no-	.
.	.	.	.	8B\	.	.	8dd\	.	.	8.g#/	.	.	8ee\	-mi-	.
.	.	.	.	8B\	.	.	8dd\	.	.	.	.	.	8ee\	-ne	.
.	.	.	.	.	.	.	.	.	.	16g#/	.	.	.	.	.
4d 4A-/	8.BB\L	8.eeL 8.b 8.g# 8.e/	.	8.B\	.	.	8.dd\	.	.	8.g#/	.	.	8.ee\	Do-	.
!	!LO:TX:a:t==Z:color=red	!	!	!	!	!	!	!	!	!	!	!	!	!	!
.	16BB-X\Jk	16ffnJk 16a-X 16fn/	.	16B-X\	.	.	16dd\	.	.	16a-X/	.	.	16ff\	-mi-	.
=24	=24	=24	=24	=24	=24	=24	=24	=24	=24	=24	=24	=24	=24	=24	=24
*	*2\right	*	*	*	*	*	*	*	*	*	*	*	*	*	*
4dn 4B-X/	2BB-\	4ff 4a-X 4f/	.	2B-\	.	.	2ddn\	.	.	2a-X/	.	.	2ff\	-ni	.
!	!	!	!	!LO:TX:a:i:t=Solo	!	!	!LO:TX::i:t=Solo	!	!	!LO:TX:a:i:t=Solo	!	!	!LO:TX:a:i:t=Solo	!	!
4rc	.	4r	.	.	.	.	.	.	.	.	.	.	.	.	.
!	!	!	!LO:DY:rj	!	!	!	!LO:ACC:color=blue	!	!	!	!	!	!	!	!
([4d 4B-\	4rEE	(>[4ff [4a-/	pp	8.B-\	.	.	8.ddn\	.	.	8.a-/	.	.	8.ff\	Be-	.
.	.	.	.	16B-\	.	.	16dd\	.	.	16a-/	.	.	16ff\	-ne-	.
=25	=25	=25	=25	=25	=25	=25	=25	=25	=25	=25	=25	=25	=25	=25	=25
4d] 4B-\	2.rEE	4ff] 4a-/]	.	(4B-\	.	.	(4ddn\	.	.	(4a-/	.	.	(4ff\	-dic-	.
.	.	.	.	.	.	.	.	.	.	.	.	.	8qqb-/)	.	.
4d-X 4E-\)	.	4b- 4g/)	.	4E-\)	.	.	4dd-X\)	.	.	4g/)	.	.	4b-\	.	.
4c 4A-\	.	[4ee- [4g-X/	.	8A-\	.	.	8cc\	.	.	8g-X/	.	.	8ee-\	-tus	.
.	.	.	.	16r	.	.	16r	.	.	16r	.	.	16r	.	.
.	.	.	.	16A-\	.	.	16cc\	.	.	16g-/	.	.	16ee-\	qui	.
=26	=26	=26	=26	=26	=26	=26	=26	=26	=26	=26	=26	=26	=26	=26	=26
*	*^	*^	*	*	*	*	*	*	*	*	*	*	*	*	*
2A-/	4C\	2.rBBBB	4ee-/]	4g-X\]	.	4C\	.	.	4a-/	.	.	4g-X/	.	.	4ee-\	ve-	.
.	4D-\	.	4.a-/	4f\	.	8D-\	.	.	8a-/	.	.	8f/	.	.	8a-/	-nit	.
.	.	.	.	.	.	8r	.	.	8r	.	.	8r	.	.	8r	.	.
4ryy	4Dn\	.	.	4f-X\	.	4Dn\	.	.	4a-/	.	.	4f-X/	.	.	8a-/L	in	.
.	.	.	8b-/	.	.	.	.	.	.	.	.	.	.	.	8b-/J	.	.
=27	=27	=27	=27	=27	=27	=27	=27	=27	=27	=27	=27	=27	=27	=27	=27	=27	=27
4A-/	2E-\	2.rDDD;	4cc/	[2e-\	.	4E-\	.	.	4a-/	.	.	4e-/	.	.	4cc\	no-	.
(8G/L	.	.	8b-/L	.	.	8E-\	.	.	8g/	.	.	8e-/	.	.	8b-\	-mi-	.
8A-/J)	.	.	8cc/	.	.	8E-\	.	.	8a-/	.	.	8e-/	.	.	8cc\	-ne	.
!	!	!	!LO:TX:t=P:problem:fermata.color=blue	!	!	!	!	!	!	!	!	!	!	!	!	!	!
4B-;/	4EE-\	.	8.dd-;/	8.e-\L]	.	8.E-;\	.	.	8.b-;\	.	.	8.e-;/	.	.	8.dd-;\	Do-	.
.	.	.	16g/Jk	16d-\Jk	.	16E-\	.	.	16b-\	.	.	16d-/	.	.	16g/	-mi-	.
*	*v	*v	*	*	*	*	*	*	*	*	*	*	*	*	*	*	*
=28	=28	=28	=28	=28	=28	=28	=28	=28	=28	=28	=28	=28	=28	=28	=28	=28
[4A- [<4AA-/	2.rEE	8a-/L	4.c\	.	4AA-/	.	.	4a-/	.	.	4c/	.	.	4a-/	-ni	.
.	.	8e-/	.	.	.	.	.	.	.	.	.	.	.	.	.	.
8A-] 8AA-/]	.	8a-/	.	.	4r	.	.	4r	.	.	4r	.	.	4r	.	.
!	!	!	!LO:TX:b:t=P:problem:mixed beam	!	!	!	!	!	!	!	!	!	!	!	!	!
4.ryy	.	8ee-/	8e-\L	.	.	.	.	.	.	.	.	.	.	.	.	.
.	.	8cc/	8c\	.	4r	.	.	4r	.	.	4r	.	.	4r	.	.
!	!	!	!	!	!LO:TX:a:i:t=tutti	!	!LO:DY:a	!LO:TX:a:i:t=tutti	!	!LO:DY:a	!LO:TX:a:i:t=tutti	!	!LO:DY:a	!LO:TX:a:i:t=tutti	!	!LO:DY:a
.	.	8a-/J	8A-</J	p	.	.	p	.	.	p	.	.	p	.	.	p
*	*	*v	*v	*	*	*	*	*	*	*	*	*	*	*	*	*
=29	=29	=29	=29	=29	=29	=29	=29	=29	=29	=29	=29	=29	=29	=29	=29
2.E-/	2.EE-\	2b- [>2g 2d-/	.	8E-\	.	.	8dd-\	.	.	8g/	.	.	8b-\	be-	.
.	.	.	.	8E-\	.	.	8dd-\	.	.	8g/	.	.	8b-\	-ne-	.
.	.	.	.	4E-\	.	.	4dd-\	.	.	4g/	.	.	4b-\	-dic-	.
.	.	8ccL 8g_> 8e-/	.	8E-\	.	.	8ee-\	.	.	8g/	.	.	8cc\	-tus	.
.	.	8b-J 8g] 8d-/	.	8E-\	.	.	8dd-\	.	.	8g/	.	.	8b-\	.	.
!!LO:LB:g=original
=30	=30	=30	=30	=30	=30	=30	=30	=30	=30	=30	=30	=30	=30	=30	=30
*	*	*^	*	*	*	*	*	*	*	*	*	*	*	*	*
!	!	!	!	!	!	!	!	!	!	!	!LO:TX:b:t=a=:color=red	!	!	!	!	!
!	!	!	!	!	!	!	!	!	!	!	!LO:TX:b:i:t=pag 31\ncome sopra:color=blue	!	!	!	!	!
2.E-/	2.EE-\	8a-/L	4c\	.	2E-\yy	.	.	2cc\yy	.	.	2e-/yy	.	.	2a-/	ve-	.
.	.	8e-/	.	.	.	.	.	.	.	.	.	.	.	.	.	.
.	.	8c/	4A-\	.	.	.	.	.	.	.	.	.	.	.	.	.
.	.	8e-/J	.	.	.	.	.	.	.	.	.	.	.	.	.	.
.	.	8a-/L	8c\L	.	4E-\yy	.	.	4ee-\yy	.	.	4e-/yy	.	.	4a-/	-nit	.
.	.	8cc/J	8d-\J	.	.	.	.	.	.	.	.	.	.	.	.	.
=31	=31	=31	=31	=31	=31	=31	=31	=31	=31	=31	=31	=31	=31	=31	=31	=31
!	!	!	!	!	!	!	!LO:DY:a:rj:t=piu f	!	!	!LO:DY:a:rj:t=piu f	!	!	!LO:DY:a:rj:t=piu f	!	!	!
4B-/	2EE-\	2dd-/	4g\	.	8E-\yy	.	fy	8b-\yy	.	fy	8g/yy	.	fy	8dd-\	be-	.
.	.	.	.	.	8E-\yy	.	.	8b-\yy	.	.	8g/yy	.	.	8dd-\	-ne-	.
4E-/	.	.	4e-\	.	4E-\yy	.	.	4b-\yy	.	.	4g/yy	.	.	4dd-\	-dic-	.
4B-/	4rEEyy	8ee-/L	4g\	.	8E-\yy	.	.	8cc\yy	.	.	8g/yy	.	.	8ee-\	-tus	.
.	.	8dd-/J	.	.	8E-\yy	.	.	8b-\yy	.	.	8g/yy	.	.	8dd-\	qui	.
*	*	*v	*v	*	*	*	*	*	*	*	*	*	*	*	*	*
=32	=32	=32	=32	=32	=32	=32	=32	=32	=32	=32	=32	=32	=32	=32	=32
2A-/	2AA-\	8ccL 8a-/	.	2AA-/yy	.	.	2a-/yy	.	.	2a-/yy	.	.	2cc\	ve-	.
.	.	8e-/	.	.	.	.	.	.	.	.	.	.	.	.	.
.	.	8c/	.	.	.	.	.	.	.	.	.	.	.	.	.
.	.	16e-/L	.	.	.	.	.	.	.	.	.	.	.	.	.
.	.	16a-/JJ	.	.	.	.	.	.	.	.	.	.	.	.	.
8.r	4rEEyy	8.cc/L	.	8A-\yy	.	.	8a-/yy	.	.	8a-/yy	.	.	8a-/	-nit	.
.	.	.	f	16ryy	.	.	16ryy	.	.	16ryy	.	.	16r	.	.
!	!	!	!	!	!	!LO:DY:a:rj	!	!	!	!	!	!	!	!	!LO:DY:a
16A-/	.	16a-/Jk	.	16A-\yy	.	fy	16a-/yy	.	.	16a-/yy	.	.	16a-/	in	f
*v	*v	*	*	*	*	*	*	*	*	*	*	*	*	*	*
=33	=33	=33	=33	=33	=33	=33	=33	=33	=33	=33	=33	=33	=33	=33
!	!	!	!	!	!LO:DY:a:rj	!	!	!LO:DY:rj	!	!	!LO:DY:rj	!	!	!
8.d-L 8.A- 8.D-/	8.ffL 8.a- 8.f/	.	8.d-;\yy	.	fy	8.ff;\yy	.	fy	8.a-;/yy	.	fy	8.ff\	no-	.
16cJk 16A- 16C/	16ee-Jk 16a- 16e-/	.	16c\yy	.	.	16ee-\yy	.	.	16a-/yy	.	.	16ee-\	-mi-	.
8cL 8A- 8C/	8ee-L 8a-/	.	4c\yy	.	.	4ee-\yy	.	.	4a-/yy	.	.	4ee-\	-ne	.
8E-/	8e-/	.	.	.	.	.	.	.	.	.	.	.	.	.
8B-/	8a-/	.	8ryy	.	.	8ryy	.	.	8ryy	.	.	8r	.	.
8c/J	8cc/J	.	8A-\yy	.	.	8ee-\yy	.	.	8a-/yy	.	.	8cc\	in	.
=34	=34	=34	=34	=34	=34	=34	=34	=34	=34	=34	=34	=34	=34	=34
*^	*	*	*	*	*	*	*	*	*	*	*	*	*	*
8.B-L 8.E-/	4GG\	8.ee-L 8.b- 8.e-/	.	8.G;\yy	.	.	8.ee-;\yy	.	.	8.b-;/yy	.	.	8.ee-\	no-	.
16B-Jk 16E-/	.	16dd-Jk 16b- 16e-/	.	16G\yy	.	.	16ee-\yy	.	.	16b-/yy	.	.	16dd-\	-mi-	.
8A-L 8E-/	8AA-\	8ccL 8a-/	.	4A-\yy	.	.	4ee-\yy	.	.	4a-/yy	.	.	4cc\	-ne	.
(<16C/L	8rGG	(16c/L	p	.	.	.	.	.	.	.	.	.	.	.	.
16E-/JJ	.	16f/JJ	.	.	.	.	.	.	.	.	.	.	.	.	.
8A-/L)	4r	8a-/L)	.	8r@yy	.	.	8ryy	.	.	8ryy	.	.	8r	.	.
8c/J	.	8cc/J	.	8C/yy	.	.	8cc\yy	.	.	8c/yy	.	.	8cc\	in	.
=35	=35	=35	=35	=35	=35	=35	=35	=35	=35	=35	=35	=35	=35	=35	=35
!	!	!	!	!	!	!LO:DY:a	!	!	!LO:DY:a	!	!	!LO:DY:a	!	!	!
4E-/	2.rEE	4ee- 4e-/	.	4E-\yy	.	>	4ee-\yy	.	>	4e-/yy	.	>	4ee-\	no-	.
8A-/L	.	8a-/L	.	8A-\yy	.	.	8a-/yy	.	.	8a-/yy	.	.	8a-/	-mi-	.
8B-/	.	8b-/	.	8B-\yy	.	.	8b-/yy	.	.	8b-\yy	.	.	8b-/	-ne	.
8.c/	.	8.cc/	.	8.c;\yy	.	]	8.cc;/yy	.	]	8.cc;\yy	.	]	8.cc\	Do-	.
16A-/Jk	.	16a-/Jk	.	16A-\yy	.	.	16a-/yy	.	.	16a-/yy	.	.	16a-/	-mi-	.
*v	*v	*	*	*	*	*	*	*	*	*	*	*	*	*	*
=36	=36	=36	=36	=36	=36	=36	=36	=36	=36	=36	=36	=36	=36	=36
2.E-/	2.e-/	.	4E-\yy	.	.	4e-/yy	.	.	4e-/yy	.	.	4e-/	-ni	.
.	.	.	4ryy	.	.	4ryy	.	.	4ryy	.	.	4r	.	.
!	!	!	!	!	!	!	!	!LO:DY:a:rj	!	!	!LO:DY:a:rj	!	!	!LO:DY:a
.	.	.	8ryy	.	.	4e-/yy	.	py	4e-/yy	.	py	4e-/	in	p
!	!	!	!LO:N:vis=4	!	!LO:DY:a:rj	!	!	!	!	!	!	!	!	!
.	.	.	8E-\yy	.	py	.	.	.	.	.	.	.	.	.
=37	=37	=37	=37	=37	=37	=37	=37	=37	=37	=37	=37	=37	=37	=37
*^	*	*	*	*	*	*	*	*	*	*	*	*	*	*
8.B-L 8.E- 8.BB-/	8.GG\L	8.dd-L 8.e- 8.d-/	.	8.GG;/yy	.	.	8.b-;/yy	.	.	8.e-;/yy	.	.	8.dd-\	no-	.
16A-Jk 16E- 16AA-/	16AA-\Jk	16ccJk 16e- 16c/	.	16AA-/yy	.	.	16a-/yy	.	.	16e-/yy	.	.	16cc\	-mi-	.
4.B- 4.E- 4.AA-/	4.AA-\	4.cc 4.e- 4.c/	.	4.AA-/yy	.	.	4.a-/yy	.	.	4.e-/yy	.	.	4.cc\	-ne	.
!	!	!	!	!	!	!	!	!	!	!LO:TX:b:t==B:color=red	!	!	!	!	!
8E-/	8BB-\	8g 8e- 8B-/	.	8BB-/yy	.	.	8e-/yy	.	.	8e-/yy	.	.	8g/	in	.
!!LO:PB:g=original
=38	=38	=38	=38	=38	=38	=38	=38	=38	=38	=38	=38	=38	=38	=38	=38
8.G/L	8.D-\L	8.b-L 8.e- 8.B-/	.	8.D-/	.	.	8.g/	.	.	8.e-/	.	.	8.b-/	no-	.
16A-/Jk	16C\Jk	16a-Jk 16e-/	.	16C/	.	.	16a-/	.	.	16e-/	.	.	16a-/	-mi-	.
4A-/	4C\	4a- 4e-/	.	8C/	.	.	8a-/	.	.	8e-/	.	.	8a-/	-ne	.
.	.	.	pp	8r	.	.	8r	.	.	8r	.	.	8r	.	.
!	!	!	!	!LO:TX:a:i:t=Solo	!	!	!LO:TX:a:i:t=Solo	!	!	!LO:TX:a:i:t=Solo	!	!	!LO:TX:a:i:t=Solo	!	!
4D-/	4rEE	4f 4d-/	.	4D-\	in	.	4a-\	in	.	4d-/	in	.	4f/	in	.
=39	=39	=39	=39	=39	=39	=39	=39	=39	=39	=39	=39	=39	=39	=39	=39
*	*	*^	*	*	*	*	*	*	*	*	*	*	*	*	*
!LO:TX:a:t=X=pay 37:color=red	!	!	!	!	!	!	!	!	!	!	!	!	!	!	!	!
2E-/	2.rEE	4a-/yy	2c\yy	.	2.E-\	no-	.	2a-/	no-	.	2c/	no-	.	4a-/	no-	.
.	.	8g/Lyy	.	.	.	.	.	.	.	.	.	.	.	8g/	-mi-	.
.	.	8a-/yy	.	.	.	.	.	.	.	.	.	.	.	8a-/	-ne	.
4rcyy	.	8.b-/yy	8.d-\Lyy	.	.	.	.	8.g/	-mi-	.	8.d-/	-mi-	.	8.b-/	Do-	.
.	.	16e-/Jkyy	16e-\Jkyy	.	.	.	.	16b-/	-ne	.	16d-/	-ne	.	16e-/	-mi-	.
=40	=40	=40	=40	=40	=40	=40	=40	=40	=40	=40	=40	=40	=40	=40	=40	=40
2A-yy 2AA-\yy	2.rEE	2.cc/yy	(y>4e-yy 4c\yy	.	2AA-/	-mi-	.	(4cc\	Do-	.	(4e-/	Do-	.	2cc\	-ni	.
.	.	.	4fyy 4dn\yy	.	.	.	.	4ddn\	.	.	4f/	.	.	.	.	.
4A-\yy	.	.	4f#Xyy 4d#X\)yy	.	4A-\	-ne	.	4dd#X\	.	.	4f#X/	.	.	4cc\	in	.
=41	=41	=41	=41	=41	=41	=41	=41	=41	=41	=41	=41	=41	=41	=41	=41	=41
2G/yy	2.rEE	4cc/yy	2gyy 2en\yy	.	2G\	Do-	.	2een\)	.	.	2g/)	.	.	4cc\	no-	.
.	.	8bn/Lyy	.	.	.	.	.	.	.	.	.	.	.	8bn\	-mi-	.
.	.	8cc/yy	.	.	.	.	.	.	.	.	.	.	.	8cc\	-ne	.
4Bnyy 4G/yy	.	8.ddn/yy	4f\yy	.	4G\	-mi-	.	4bn\	-mi-	.	4f/	-mi-	.	8.ddn\	Do-	.
.	.	16g/Jkyy	.	.	.	.	.	.	.	.	.	.	.	16g/	-mi-	.
=42	=42	=42	=42	=42	=42	=42	=42	=42	=42	=42	=42	=42	=42	=42	=42	=42
!	!	!	!	!	!	!	!	!	!	!	!	!	!	!LO:TX:a:t=a:color=red	!	!
[y<4c/yy	2rEEyy	[y4een/yy	4en\yy	.	2c\	-ni	.	2cc\	-ni	.	(4en/	-ni	.	2een\	-ni.	.
8c/]yy	.	8ee/]yy	8g\yy	.	.	.	.	.	.	.	4g/)	.	.	.	.	.
!	!	!	!	!	!	!	!	!	!	!LO:DY:b	!	!	!LO:DY:b	!LO:TX:a:i:t=tutti	!	!LO:DY:b
8rcyy	.	8ryy	8rcyy	fy	.	.	ff	.	.	ff	.	.	ff	.	.	ff
!	!	!	!	!	!LO:TX:a:i:t=tutti	!	!	!LO:TX:a:i:t=tutti	!	!	!LO:TX:a:i:t=tutti	!	!	!	!	!
8.dnLyy 8.Bnyy 8.G#Xyy 8.En/yy	4BBn^\yy	8.eeLyy 8.bnyy 8.g#Xyy 8.e/yy	4rcyy	.	8.Bn\	Be-	.	8.ddn\	Be-	.	8.g#X/	Be-	.	8.ee\	Be-	.
*	*	*	*	*	*	*ij	*	*	*ij	*	*	*ij	*	*	*	*
16dJkyy 16Byy 16G#yy 16E/yy	.	16eeJkyy 16byy 16g#yy 16e/yy	.	.	16B\	-ne-	.	16dd\	-ne-	.	16g#/	-ne-	.	16ee\	-ne-	.
*	*	*v	*v	*	*	*	*	*	*	*	*	*	*	*	*	*
=43	=43	=43	=43	=43	=43	=43	=43	=43	=43	=43	=43	=43	=43	=43	=43
2dnyy 2Bnyy 2G#Xyy 2En/yy	2BBn^\yy	2eenyy 2bnyy 2g#Xyy 2en/yy	.	2Bn\	-dic-	.	2ddn\	-dic-	.	2g#X/	-dic-	.	2een\	-dic-	.
8.dLyy 8.Byy 8.G#yy 8.E/yy	4BB^\yy	8.eeLyy 8.byy 8.g#yy 8.e/yy	.	8.B\	-tus	.	8.dd\	-tus	.	8.g#/	-tus	.	8.ee\	-tus	.
16dJkyy 16Byy 16G#yy 16E/yy	.	16eeJkyy 16byy 16g#yy 16e/yy	.	16B\	qui	.	16dd\	qui	.	16g#/	qui	.	16ee\	qui	.
=44	=44	=44	=44	=44	=44	=44	=44	=44	=44	=44	=44	=44	=44	=44	=44
*repy	*	*repy	*	*	*	*	*	*	*	*	*	*	*	*	*
2dnyy 2Bnyy 2G#Xyy 2En/yy	2BBn^<\yy	2eenyy 2bnyy 2g#Xyy 2en/yy	.	2Bn\	ve-	.	2ddn\	ve-	.	2g#X/	ve-	.	2een\	ve-	.
8.dLyy 8.Byy 8.G#yy 8.E/yy	4BB^<\yy	8.eeLyy 8.byy 8.g#yy 8.e/yy	.	8.B\	-nit	.	8.dd\	-nit	.	8.g#/	-nit	.	8.ee\	-nit	.
16dJkyy 16Byy 16G#yy 16E/yy	.	16eeJkyy 16byy 16g#yy 16e/yy	.	16B\	in	.	16dd\	in	.	16g#/	in	.	16ee\	in	.
*Xrep	*	*Xrep	*	*	*	*	*	*	*	*	*	*	*	*	*
=45	=45	=45	=45	=45	=45	=45	=45	=45	=45	=45	=45	=45	=45	=45	=45
!	!	!	!	!	!	!	!	!	!	!LO:ACC:color=blue	!	!	!	!	!
2dnyy 2Bnyy 2G#Xyy 2En/yy	2BBn\yy	2eenyy 2bnyy 2g#Xyy 2en/yy	.	4Bn\	no-	.	4ddn\	no-	.	4g#X/	no-	.	4een\	no-	.
.	.	.	.	8B\	-mi-	.	8dd\	-mi-	.	8g#/	-mi-	.	8ee\	-mi-	.
.	.	.	.	8B\	-ne	.	8dd\	-ne	.	8g#/	-ne	.	8ee\	-ne	.
4dyy 4A-/yy	8.BB\Lyy	8.eeLyy 8.byy 8.g#yy 8.e/yy	.	8.B\	Do-	.	8.dd\	Do-	.	8.g#/	Do-	.	8.ee\	Do-	.
!LO:TX:t==Z:color=red	!	!	!	!	!	!	!	!	!	!	!	!	!	!	!
.	16BB-X\Jkyy	16ffnJkyy 16a-Xyy 16fn/yy	.	16B\	-mi-	.	16dd-X\	-mi-	.	16a-X/	-mi-	.	16ff\	-mi-	.
*	*	*	*	*	*Xij	*	*	*Xij	*	*	*Xij	*	*	*	*
!!LO:LB:g=original
=46	=46	=46	=46	=46	=46	=46	=46	=46	=46	=46	=46	=46	=46	=46	=46
*	*	*^	*	*	*	*	*	*	*	*	*	*	*	*	*
2d-X 2Bn;/	(>2BBn\	2ff;/	2.a-X 2.fn\	.	2Bn;\	-ni	.	2dd-X;\	-ni	.	2a-X;/	-ni	.	2ff;\	-ni	.
!	!	!	!	!	!	!	!LO:DY:b	!	!	!LO:DY:b	!	!	!	!	!	!LO:DY:b
.	.	.	.	p	.	.	p	.	.	pp	.	.	pp	.	.	pp
*	*	*	*	*	*	*	*	*	*	*	*	*ij	*	*	*	*
!	!	!	!	!	!LO:ACC:color=blue	!	!	!	!	!	!	!	!	!	!	!
[4d- [4B-X/	8BB-X\)	([4ff [<4a-/	.	.	8.B-X\	.	.	8.dd-\	.	.	8.a-/	Be-	.	8.ff\	Be-	.
.	8rEE	.	.	.	.	.	.	.	.	.	.	.	.	.	.	.
.	.	.	.	.	16B-\	.	.	16dd-\	.	.	16a-/	-ne-	.	16ff\	-ne-	.
*	*	*v	*v	*	*	*	*	*	*	*	*	*	*	*	*	*
=47	=47	=47	=47	=47	=47	=47	=47	=47	=47	=47	=47	=47	=47	=47	=47
*	*	*	*	*	*	*	*2\left	*	*	*	*	*	*	*	*
2d-] 2B-/]	(>4BB-\	4ff] 4a-/]	.	4B-\	.	.	2dd-\	.	.	(4a-/	-dic-	.	(4ff\	-dic-	.
.	4E-\)	4b- 4g/)	.	4E-\	.	.	.	.	.	4g/)	.	.	4b-\)	.	.
4c [4A-/	4AA-\	(>[4ee- [4g-X/	.	8A-\	.	.	8cc\	.	.	8g-X/	-tus	.	8ee-\	-tus	.
.	.	.	.	16r	.	.	16r	.	.	16r	.	.	16r	.	.
.	.	.	.	16A-\	.	.	16cc\	.	.	16g-/	qui	.	16ee-\	qui	.
=48	=48	=48	=48	=48	=48	=48	=48	=48	=48	=48	=48	=48	=48	=48	=48
*	*	*^	*	*	*	*	*	*	*	*	*	*	*	*	*
!LO:N:vis=1	!	!	!	!	!	!	!	!	!	!	!	!	!	!	!	!
2A-/]	(>4C\	4ee-] 4g-] 4e-/	4rcyy	.	4C/	.	.	4a-/	.	.	4g-X/	ve-	.	4ee-\	ve-	.
.	4D-\)	4.a-/)	4f\	.	8D-/	.	.	8a-/	.	.	8f/	-nit	.	8a-/	-nit	.
.	.	.	.	.	8r	.	.	8r	.	.	8r	.	.	8r	.	.
[4A-/	4DD-\	.	[>4e-X\	.	4D-\	.	.	4a-/	.	.	4f-X/	in	.	8a-/L	in	.
.	.	8b-/	.	.	.	.	.	.	.	.	.	.	.	8b-/J	.	.
=49	=49	=49	=49	=49	=49	=49	=49	=49	=49	=49	=49	=49	=49	=49	=49	=49
4A-/]	2E- 2EE-\	4cc/	2e-\]	.	4E-\	.	.	4a-/	.	.	4e-/	no-	.	4cc\	no-	.
8G/L	.	8b-/L	.	.	8E-\	.	.	8g/	.	.	8e-/	-mi-	.	8b-\	-mi-	.
8F/J	.	8cc/	.	.	8E-\	.	.	8f/	.	.	8e-/	-ne	.	8cc\	-ne	.
8.d-L 8.G/	4E- 4EE-\	8.ee-;/	4e-\	.	8.E-;\	.	.	8.g;/	.	.	8.d-;/	Do-	.	8.ee-;\	Do-	.
16d-Jk 16B-/	.	16g/Jk	.	.	16E-\	.	.	16b-/	.	.	16d-/	-mi	.	16g/	-mi-	.
*	*	*	*	*	*	*	*	*	*	*	*	*Xij	*	*	*	*
=50||	=50||	=50||	=50||	=50||	=50||	=50||	=50||	=50||	=50||	=50||	=50||	=50||	=50||	=50||	=50||	=50||
*	*	*	*	*	*^	*	*	*	*	*	*	*	*	*	*	*
*	*ped	*	*	*	*	*	*	*	*	*	*	*	*	*	*2/left	*	*
!	!	!	!	!	!	!	!	!	!	!	!	!	!	!	!LO:TX:a:i:t=un poco piu lento.	!	!
4c 4A- 4E-/	2AA-\	2a-/	2e-\	.	2E-/	2AA-\	.	.	2a-/	.	.	2c/	.	.	2a-/	-ni.	.
([2E-/	.	.	.	.	.	.	.	p	.	.	p	.	.	p	.	.	p
!LO:TX:a:i:t=mſ.	!	!	!	!	!	!	!	!	!LO:TX:a:i:t=molto simplice	!	!	!LO:TX:a:i:t=molto simplice	!	!	!LO:TX:a:i:t=molto simplice	!	!
.	4d-> 4G>\)	(8g/L	4rcyy	.	8E-'\	4rEEyy	.	.	8g'/	.	.	8d-'/	.	.	8g'/	Be-	.
.	.	8f/J	.	.	8E-'\	.	.	.	8g'/	.	.	8d-'/	.	.	8f'/	-ne-	.
*	*	*	*	*	*v	*v	*	*	*	*	*	*	*	*	*	*	*
=51	=51	=51	=51	=51	=51	=51	=51	=51	=51	=51	=51	=51	=51	=51	=51	=51
*	*	*	*	*	*	*	*	*	*	*	*	*	*	*^	*	*
8E-/]	2AA-\	(4e-/)	2c 2A-\	.	4AA-/	.	.	4a-/	.	.	4c/	.	.	4e-/	4rcyy	-dic-	.
8rc	.	.	.	.	.	.	.	.	.	.	.	.	.	.	.	.	.
([2E-/	.	4a-/	.	.	4AA-/	.	.	4a-/	.	.	4c/	.	.	4a-/	4e-/@	-tus	.
.	4d-> 4G>\)	4b-/	4rcyy	.	4E-\	.	.	4g/	.	.	4d-/	.	.	4b-/	4e-/@	qui	.
=52	=52	=52	=52	=52	=52	=52	=52	=52	=52	=52	=52	=52	=52	=52	=52	=52	=52
8E-/]	2AA-\	4cc/	2c 2A-\	.	4AA-/	.	.	4a-/	.	.	4c/	.	.	4cc\	4d-/@	ve-	.
8rc	.	.	.	.	.	.	.	.	.	.	.	.	.	.	.	.	.
!	!	!	!	!	!LO:TX:t=P:problem:stem.color=blue	!	!	!LO:TX:t=P:problem:stem.color=blue	!	!	!LO:TX:t=P:problem:stem.color=blue	!	!	!	!	!	!
([2E-/	.	4a-/)	.	.	8AA-/	.	.	8a-/	.	.	8c/	.	.	8a-/	8e-/@	-nit,	.
.	.	.	.	.	8r@	.	.	8r@	.	.	8r@	.	.	8r@	8rcyy	.	.
!	!	!	!	!	!	!	!	!	!	!	!	!	!	!	!LO:TX:b:t=P:problem:stem.color=blue	!	!
.	4d-> 4G>\)	8g/L	4rcyy	.	8E-\	.	.	8g'/	.	.	8e-'/	.	.	8g/	8g\	be-	.
!	!	!	!	!	!	!	!	!	!	!	!	!	!	!	!LO:TX:b:t=P:problem:stem.color=blue	!	!
.	.	8f/J	.	.	8E-\	.	.	8g'/	.	.	8d-'/	.	.	8f/	8f\	-ne-	.
!!LO:PB:g=original
=53	=53	=53	=53	=53	=53	=53	=53	=53	=53	=53	=53	=53	=53	=53	=53	=53	=53
*rep	*rep	*rep	*rep	*	*	*	*	*	*	*	*	*	*	*	*	*	*
8E-/]	2AA-\	(4cc/	2c 2A-\	.	4AA-/	.	.	4a-/	.	.	4c/	.	.	4e-/	4ryy	-dic-	.
8rc	.	.	.	.	.	.	.	.	.	.	.	.	.	.	.	.	.
([2E-/	.	4a-/)	.	.	4AA-/	.	.	4a-/	.	.	4c/	.	.	4a-\	4e-\	-tus	.
.	4d-> 4G>\)	(8g/L	4rcyy	.	4E-\	.	.	4g/	.	.	4d-/	.	.	4b-\	4e-\	qui	.
.	.	8f/J)	.	.	.	.	.	.	.	.	.	.	.	.	.	.	.
*Xrep	*Xrep	*Xrep	*Xrep	*	*	*	*	*	*	*	*	*	*	*	*	*	*
=54	=54	=54	=54	=54	=54	=54	=54	=54	=54	=54	=54	=54	=54	=54	=54	=54	=54
!	!	!	!LO:S:s=1:note:problem:note-level slur	!	!	!	!	!	!	!	!	!	!	!	!	!	!
(4E-/]	4AA-\	(4cc/	(>4c (4A-\	.	4AA-/	.	.	4a-/	.	.	4c/	.	.	4cc\	4d-\	ve-	.
8A-/)	8AA-\	8a-/)	8e-) 8c\)	.	8AA-/	.	.	8cc\	.	.	8e-/	.	.	8a-/	8a-\	-nit,	.
8rc	8rBB	8r	8rcyy	.	8r	.	.	8r	.	.	8r	.	.	8r	8rcyy	.	.
!	!	!	!	!LO:DY:t=forte	!	!	!LO:DY:a:rj	!	!	!LO:DY:a:rj	!	!	!LO:DY:a:rj	!	!	!	!LO:DY:a:rj
4A-/	4rBB	4a-/	4rcyy	f	4A-\	.	f	4a-/	.	f	4a-/	.	f	4a-\	4rcyy	in	f
*	*	*v	*v	*	*	*	*	*	*	*	*	*	*	*v	*v	*	*
=55	=55	=55	=55	=55	=55	=55	=55	=55	=55	=55	=55	=55	=55	=55	=55
2.A- 2.F 2.D-/	2DD-\	2.dd- 2.a- 2.f 2.d-/	.	4.D-^\	.	.	4.a-^/	.	.	4.f^/	.	.	4.dd-^\	no-	.
!	!	!	!	!	!	!	!LO:TX:a:t=ralent	!	!	!LO:TX:a:t=ralent	!	!	!LO:TX:a:i:t=ralent.	!	!
.	.	.	.	8D-\	.	.	8a-/	.	.	8f/	.	.	8dd-\	-mi-	.
.	4rEEyy	.	.	4D-\	.	.	4a-/	.	.	4f/	.	.	4dd-\	-ne	.
=56	=56	=56	=56	=56	=56	=56	=56	=56	=56	=56	=56	=56	=56	=56	=56
*	*	*	*	*	*	*	*2\right	*	*	*	*	*	*	*	*
!	!	!	!	!	!	!LO:DY:a	!	!	!LO:DY:a	!	!	!LO:DY:a	!	!	!
(2B-/	4.G-X 4.GG-X\	2dd- 2g-X 2d-/	.	(4.G-X\	.	>	2b-\	.	>	2g-X/	.	>	2dd-\	Do-	>
.	8F-X 8FF-X\	.	p	8F-X\)	.	]	.	.	.	.	.	.	.	.	.
!	!	!	!	!	!	!LO:DY:a:rj	!	!	!LO:DY:a:rj	!	!	!LO:DY:a:rj	!	!	!LO:DY:a:rj
4E-/)	4E- 4EE-\	4gn 4d-/	.	4E-\	.	pp	4b-\	.	] pp	4gn/	.	] pp	4d-/	-mi-	] pp
=57	=57	=57	=57	=57	=57	=57	=57	=57	=57	=57	=57	=57	=57	=57	=57
*	*	*^	*	*^	*	*	*	*	*	*	*	*	*	*	*
2E-;</	2AA-\	2.a-;/	2.c\	.	2.E-;/	2.AA-\	.	.	2.a-;/	.	.	2.a-;/	.	.	2.c;/	-ni.	.
4rcyy	4rEEyy	.	.	.	.	.	.	.	.	.	.	.	.	.	.	.	.
*v	*v	*	*	*	*v	*v	*	*	*	*	*	*	*	*	*	*	*
*	*v	*v	*	*	*	*	*	*	*	*	*	*	*	*	*
==	==	==	==	==	==	==	==	==	==	==	==	==	==	==
*-	*-	*-	*-	*-	*-	*-	*-	*-	*-	*-	*-	*-	*-	*-
!!!system-decoration: ([s1,s2,s3,s4][s5,s6])
!!!RDF**kern: > = above
!!!RDF**kern: < = below
!!!RDF**kern: @ = marked note, color=blue
!!!AIN: 1 alto 1 empty 2 organ 1 soprn 1 tenor
!!!ENC: Marta Lawrence
!!!END: 2021-07-11
!!!ENC: Mateusz Solarz
!!!END: 2021-07-08
